img/svg/ben-item1.svg

<svg width="80" height="80" viewBox="0 0 80 80" fill="none" xmlns="http://www.w3.org/2000/svg">
<circle cx="40.001" cy="39.9998" r="40" fill="#0079FD"/>
<path d="M36.6676 46.6664H43.3342C44.2509 46.6664 45.0009 45.9164 45.0009 44.9997V39.9997C45.0009 39.083 44.2509 38.333 43.3342 38.333V36.6664C43.3342 34.8164 41.8342 33.333 40.0009 33.333C38.1509 33.333 36.6676 34.833 36.6676 36.6664V38.333C35.7509 38.333 35.0009 39.083 35.0009 39.9997V44.9997C35.0009 45.9164 35.7509 46.6664 36.6676 46.6664ZM38.0009 36.6664C38.0009 35.5664 38.9009 34.6664 40.0009 34.6664C41.1009 34.6664 42.0009 35.5664 42.0009 36.6664V38.333H38.0009V36.6664ZM48.3342 21.6664H31.6676C29.8342 21.6664 28.3342 23.1664 28.3342 24.9997V54.9997C28.3342 56.833 29.8342 58.333 31.6676 58.333H48.3342C50.1676 58.333 51.6676 56.833 51.6676 54.9997V24.9997C51.6676 23.1664 50.1676 21.6664 48.3342 21.6664ZM48.3342 51.6664H31.6676V28.333H48.3342V51.6664Z" fill="white"/>
</svg>

<svg width="80" height="80" viewBox="0 0 80 80" fill="none" xmlns="http://www.w3.org/2000/svg"><circle cx="40.001" cy="40" r="40" fill="#0079FD"/><path d="M36.668 46.666h6.666c.917 0 1.667-.75 1.667-1.666v-5c0-.917-.75-1.667-1.667-1.667v-1.667a3.332 3.332 0 10-6.666 0v1.667c-.917 0-1.667.75-1.667 1.667v5c0 .916.75 1.666 1.667 1.666zm1.333-10c0-1.1.9-2 2-2s2 .9 2 2v1.667h-4v-1.667zm10.333-15H31.668A3.343 3.343 0 0028.334 25v30c0 1.833 1.5 3.333 3.334 3.333h16.666c1.834 0 3.334-1.5 3.334-3.333V25c0-1.834-1.5-3.334-3.334-3.334zm0 30H31.668V28.333h16.666v23.333z" fill="#fff"/></svg>
